X:8
T:Joe the Mailman
R:strathspey
C:Dougie MacDonald
O:20th century Cape Breton
D:A Miner
N:Bookings,Mechanicals etc.
N:..... Dougie MacDonald <dougie@cranfordpub.com>
N:More tunes and information <http://www.cranfordpub.com/dougie>
Z:This abc transcription is for personal use only,
Z:provided this notice remains attached.
Z:Used by permission of the composer.
Z:Paul Stewart Cranford 
Q:288
L:1/8
M:C
K:D
F<A Ad/B/ A>FA<d|F<A Aa/f/ e>de<f|F<AD>B A>FA>a|g>ef<d B>AB<e|!
F<A Ad/B/ A>FA<d|F<A Aa/f/ e>de<f|F<AD>B A>FA>a|g>ef<d B2||!
B>A|d>ef>g a/g/f/e/ d>f|e>de<f e>dB>A|d>ef>g a/g/f/e/ d>f|g>ef<d B2 B<e|!
d>ef>g a/g/f/e/ d>f|e>de<f e>de<f|g>eff|g>ef>d B>AB<d|]!
